clients/common/images/buttons/threads-white.svg

<svg height="253" viewBox="0 0 253 253" width="253" xmlns="http://www.w3.org/2000/svg"><g fill="none" fill-rule="evenodd"><circle cx="126.45" cy="126.45" fill="#fff" r="126.45"/><path d="m167.20298 120.70029c-.72498-.34844-1.46401-.68283-2.21147-1.00317-1.30103-23.97773-14.40406-37.70739-36.40355-37.84789-.09835 0-.19951 0-.29786 0-13.15923 0-24.10418 5.61719-30.83975 15.83716l12.09986 8.30074c5.03271-7.63477 12.92881-9.26176 18.74551-9.26176h.20232c7.24418.04496 12.70963 2.15246 16.24742 6.26068 2.57396 2.98984 4.29649 7.12335 5.15073 12.33871-6.42366-1.09028-13.36717-1.42748-20.794-1.00036-20.91764 1.20549-34.36349 13.4037-33.46148 30.35643.45803 8.5986 4.74328 15.99452 12.06052 20.82772 6.18762 4.08574 14.15959 6.08365 22.44347 5.63124 10.93933-.59853 19.52107-4.77419 25.50918-12.40615 4.54658-5.79703 7.42402-13.30535 8.69133-22.76943 5.21255 3.1472 9.0763 7.28633 11.2119 12.26284 3.62771 8.46091 3.84127 22.36479-7.50551 33.69752-9.93897 9.93054-21.88709 14.22703-39.94415 14.3591-20.02968-.14893-35.17839-6.57259-45.02744-19.09114-9.22242-11.72894-13.99099-28.662-14.16802-50.33553.17703-21.67353 4.94279-38.6094 14.16802-50.33272 9.84905-12.52136 24.99776-18.94221 45.02463-19.09114 20.1758.14893 35.58584 6.6035 45.81143 19.18387 5.01304 6.16795 8.7953 13.92917 11.28777 22.97456l14.17926-3.78226c-3.02075-11.13322-7.77527-20.72937-14.24108-28.68729-13.10865-16.1294-32.28128-24.39361-56.9868-24.56502h-.09835c-24.65494.17141-43.6112 8.46653-56.34893 24.65775-11.33273 14.40687-17.18034 34.45341-17.37704 59.58324v.05901.05901c.1967 25.12983 6.0415 45.17637 17.37704 59.58324 12.73492 16.19122 31.69399 24.48634 56.34893 24.65775h.09835c21.918-.15174 37.36738-5.88976 50.09668-18.60782 16.65206-16.6352 16.15188-37.48821 10.66114-50.29057-3.93681-9.17746-11.44513-16.6352-21.71006-21.55832zm-37.84508 35.58022c-9.16903.51704-18.69212-3.59961-19.16139-12.41177-.34844-6.53606 4.65055-13.82801 19.72339-14.6963 1.72534-.09835 3.41977-.14893 5.08329-.14893 5.47388 0 10.59651.53109 15.25268 1.55112-1.73377 21.69039-11.92283 25.21413-20.89797 25.70588z" fill="#000" fill-rule="nonzero"/></g></svg>

<svg xmlns="http://www.w3.org/2000/svg" width="253" height="253" viewBox="0 0 253 253"><g fill="none" fill-rule="evenodd"><circle cx="126.45" cy="126.45" r="126.45" fill="#FFF"/><path fill="#000" fill-rule="nonzero" d="M167.20298,120.70029 C166.478,120.35185 165.73897,120.01746 164.99151,119.69712 C163.69048,95.71939 150.58745,81.98973 128.58796,81.84923 C128.48961,81.84923 128.38845,81.84923 128.2901,81.84923 C115.13087,81.84923 104.18592,87.46642 97.45035,97.68639 L109.55021,105.98713 C114.58292,98.35236 122.47902,96.72537 128.29572,96.72537 C128.36316,96.72537 128.4306,96.72537 128.49804,96.72537 C135.74222,96.77033 141.20767,98.87783 144.74546,102.98605 C147.31942,105.97589 149.04195,110.1094 149.89619,115.32476 C143.47253,114.23448 136.52902,113.89728 129.10219,114.3244 C108.18455,115.52989 94.7387,127.7281 95.64071,144.68083 C96.09874,153.27943 100.38399,160.67535 107.70123,165.50855 C113.88885,169.59429 121.86082,171.5922 130.1447,171.13979 C141.08403,170.54126 149.66577,166.3656 155.65388,158.73364 C160.20046,152.93661 163.0779,145.42829 164.34521,135.96421 C169.55776,139.11141 173.42151,143.25054 175.55711,148.22705 C179.18482,156.68796 179.39838,170.59184 168.0516,181.92457 C158.11263,191.85511 146.16451,196.1516 128.10745,196.28367 C108.07777,196.13474 92.92906,189.71108 83.08001,177.19253 C73.85759,165.46359 69.08902,148.53053 68.91199,126.857 C69.08902,105.18347 73.85478,88.2476 83.08001,76.52428 C92.92906,64.00292 108.07777,57.58207 128.10464,57.43314 C148.28044,57.58207 163.69048,64.03664 173.91607,76.61701 C178.92911,82.78496 182.71137,90.54618 185.20384,99.59157 L199.3831,95.80931 C196.36235,84.67609 191.60783,75.07994 185.14202,67.12202 C172.03337,50.99262 152.86074,42.72841 128.15522,42.557 L128.05687,42.557 C103.40193,42.72841 84.44567,51.02353 71.70794,67.21475 C60.37521,81.62162 54.5276,101.66816 54.3309,126.79799 L54.3309,126.857 L54.3309,126.91601 C54.5276,152.04584 60.3724,172.09238 71.70794,186.49925 C84.44286,202.69047 103.40193,210.98559 128.05687,211.157 L128.15522,211.157 C150.07322,211.00526 165.5226,205.26724 178.2519,192.54918 C194.90396,175.91398 194.40378,155.06097 188.91304,142.25861 C184.97623,133.08115 177.46791,125.62341 167.20298,120.70029 Z M129.3579,156.28051 C120.18887,156.79755 110.66578,152.6809 110.19651,143.86874 C109.84807,137.33268 114.84706,130.04073 129.9199,129.17244 C131.64524,129.07409 133.33967,129.02351 135.00319,129.02351 C140.47707,129.02351 145.5997,129.5546 150.25587,130.57463 C148.5221,152.26502 138.33304,155.78876 129.3579,156.28051 Z"/></g></svg>
